public/logo.svg

<svg xmlns="http://www.w3.org/2000/svg" width="3034" height="1381" viewBox="0 0 3034 1381"><path fill="#000" fill-rule="evenodd" d="M0 690.5v690.501l1517.25-.251 1517.25-.25.251-690.25.25-690.25H0zm.497.5c0 379.775.114 535.137.253 345.25.139-189.888.139-500.613 0-690.5C.611 155.862.497 311.225.497 691M83 690.5V1298h2868.5V83H83zm82.667-524.834c-.367.367-.667 236.842-.667 525.501v524.834l1351.75-.251 1351.75-.25v-1050l-1351.083-.25c-743.096-.138-1351.383.049-1351.75.416M1431.522 319.25c-.59 2.57-21.522 121.462-21.522 122.24 0 .281 39.825.51 88.5.51s88.5-.211 88.5-.468c0-.702 20.953-119.675 21.535-122.282l.503-2.25h-177zm685.993 0c-.638 2.749-21.515 121.249-21.515 122.126 0 .343 39.825.624 88.5.624s88.5-.264 88.5-.586c0-.94 21.06-119.684 21.666-122.164l.551-2.25h-177.179zM556 486.034c-79.095 6.154-147.906 37.777-195.408 89.805-42.814 46.892-69.71 112.757-74.639 182.783-3.929 55.808 12.1 103.972 46.047 138.362 37.855 38.349 97.203 58.998 169.605 59.013 79.471.015 150.299-23.634 202.395-67.581 34.204-28.853 61.159-67.943 77.862-112.916 15.114-40.692 22.431-88.065 19.232-124.5-3.99-45.431-18.748-78.866-47.493-107.596-30.789-30.773-73.317-49.433-127.601-55.989-15.196-1.836-54.257-2.606-70-1.381m523-.002c-66.509 6.341-123.243 29.462-172.5 70.301-9.556 7.924-28.73 27.72-37.453 38.669-40.195 50.453-62.179 112.81-62.403 176.998-.099 28.243 3.551 49.192 12.456 71.5 24.267 60.788 81.55 99.686 162.041 110.036 17.244 2.218 51.018 2.961 70.359 1.549 81.989-5.986 148.797-32.3 194.358-76.553 13.924-13.524 21.98-23.071 31.523-37.353 6.24-9.34 17.619-29.744 17.619-31.594 0-.322-37.987-.585-84.415-.585h-84.415l-3.496 4.763c-14.29 19.466-38.15 32.073-64.036 33.834-35.323 2.402-65.474-16.464-75.266-47.097-2.823-8.829-4.149-24.123-2.935-33.839l.707-5.661h168.459c133.85 0 168.557-.257 168.931-1.25.26-.687 1.372-7.55 2.472-15.25 11.378-79.635-3.218-144.071-43.361-191.429-29.646-34.975-77.451-58.609-132.645-65.578-14.964-1.889-52.735-2.725-66-1.461m719-.006c-57.066 4.896-103.098 19.295-140 43.794-14.93 9.911-34.877 29.493-43.877 43.072-22.389 33.78-31.548 79.131-22.44 111.108 7.092 24.9 25.445 45.077 54.042 59.416 23.362 11.713 44.394 17.929 99.902 29.525 35.669 7.452 52.028 11.864 62.932 16.974 10.405 4.876 15.01 8.346 18.619 14.031 3.501 5.515 3.828 13.817.882 22.381-7.193 20.906-27.411 31.887-59.06 32.079-14.349.087-20.553-.96-29.853-5.039-17.259-7.57-25.775-21.185-24.996-39.963l.349-8.404h-168.755l.562 19.75c.72 25.264 3.631 38.513 12.031 54.75 21.324 41.218 66.997 65.667 138.632 74.209 18.305 2.182 74.715 2.454 94.53.455 41.279-4.164 76.666-12.17 106.31-24.054 8.797-3.526 28.336-13.576 36.254-18.647 43.422-27.81 69.469-66.86 76.529-114.732 2.094-14.198 1.468-32.772-1.482-44.006-2.34-8.91-8.413-21.518-13.994-29.053-9.366-12.645-25.913-25.578-44.847-35.053-25.162-12.592-49.387-19.862-118.665-35.611-45.862-10.426-64.781-18.921-68.721-30.859-2.619-7.937 1.515-19.575 9.601-27.029 8.23-7.586 19.674-11.417 38.015-12.724 23.045-1.643 40.767 6.114 47.961 20.995 2.285 4.726 4.912 16.83 4.302 19.82-.213 1.042 15.106 1.338 79.855 1.545l80.118.256.621-3.756c1.701-10.29-.418-33.209-4.36-47.166-13.883-49.153-61.164-78.099-141.497-86.624-17.033-1.807-65.076-2.678-79.5-1.44m692-.402c-43.508 2.595-86.206 12.981-120 29.188-60.398 28.966-95.417 80.977-95.401 141.688.004 12.039.433 16.719 2.174 23.709 5.099 20.468 15.918 36.677 33.172 49.701 24.829 18.741 52.673 28.661 119.555 42.593 41.901 8.728 55.431 12.462 68 18.767 8.268 4.148 12.369 7.464 15.678 12.676 6.7 10.554 1.343 29.578-11.414 40.538-5.766 4.953-16.574 9.953-26.264 12.149-9.969 2.26-31.43 2.518-39.5.474-24.293-6.15-36.775-21.368-35.849-43.703l.349-8.404H2232l.006 15.25c.003 8.388.651 19.527 1.439 24.754 9.813 65.095 66.818 102.887 166.055 110.088 29.544 2.144 78.578.035 108.5-4.667 53.998-8.485 102.116-28.019 132.373-53.739 30.836-26.212 48.951-57.819 55.614-97.035 9.68-56.973-16.039-95.366-80.487-120.151-18.667-7.179-36.87-12.373-70-19.974-11-2.524-26.032-5.98-33.405-7.68-19.095-4.403-38.341-10.39-46.542-14.478-8.234-4.105-15.054-10.327-16.663-15.201-2.493-7.554 1.401-19.318 8.779-26.523 8.871-8.66 23.228-12.931 43.831-13.037 18.287-.094 27.786 2.924 36.295 11.534 6.408 6.483 9.456 13.48 10.005 22.97l.457 7.889h160.481l.62-3.75c1.028-6.216.687-18.133-.835-29.25-5.28-38.566-24.321-64.369-61.162-82.878-21.733-10.919-48.25-17.768-83.861-21.659-13.479-1.473-60.082-2.639-73.5-1.839m-1090 12.845c0 .529-25.665 146.15-37.986 215.531-4.445 25.025-10.071 56.75-12.504 70.5-6.918 39.097-27.51 157.322-27.51 157.942 0 .307 39.74.558 88.312.558h88.312l5.198-29.75c2.858-16.363 10.152-57.65 16.207-91.75 10.378-58.447 25.496-144.456 42.535-242 11.145-63.803 13.432-76.767 13.979-79.25l.495-2.25h-88.519c-48.685 0-88.519.211-88.519.469m684.081 11.281c-1.923 10.607-19.839 112.153-27.037 153.25-1.59 9.075-5.378 30.45-8.418 47.5-11.272 63.216-23.632 133.509-38.173 217.101-1.349 7.756-2.453 14.393-2.453 14.75s39.614.649 88.031.649c69.518 0 88.127-.263 88.484-1.25.249-.687 4.079-21.725 8.513-46.75 13.23-74.676 37.484-212.39 42.973-244 9.855-56.758 25.994-148.52 26.513-150.75l.524-2.25h-176.826zM1082.5 593.638c-43.637 4.638-72.432 28.103-83.03 67.662-1.356 5.06-2.466 9.315-2.467 9.456-.002.141 36.109.141 80.247 0l80.25-.256-.059-13c-.052-11.402-.381-13.901-2.679-20.335-7.493-20.973-24.844-36.887-45.762-41.968-5.221-1.269-20.679-2.178-26.5-1.559m-526.575 11.277c-44.372 6.243-76.573 48.227-87.845 114.534-8.241 48.475-2.893 83.7 15.51 102.16 11.098 11.131 25.509 16.065 43.91 15.034 12.815-.718 19.738-2.545 31.479-8.306 8.093-3.971 10.879-6.052 19.068-14.244 9.892-9.895 16.155-18.54 22.185-30.625 13.748-27.55 23.779-70.685 23.762-102.179-.014-26.634-6.65-48.076-19.072-61.633-5.942-6.484-12.462-10.668-20.612-13.224-5.768-1.81-20.653-2.605-28.385-1.517"/></svg>

<svg xmlns="http://www.w3.org/2000/svg" width="3034" height="1381" viewBox="0 0 3034 1381" version="1.1">
	<path d="M -0 690.500 L -0 1381.001 1517.250 1380.750 L 3034.500 1380.500 3034.751 690.250 L 3035.001 -0 1517.501 -0 L 0 0 -0 690.500 M 0.497 691 C 0.497 1070.775, 0.611 1226.137, 0.750 1036.250 C 0.889 846.362, 0.889 535.637, 0.750 345.750 C 0.611 155.862, 0.497 311.225, 0.497 691 M 83 690.500 L 83 1298 1517.250 1298 L 2951.500 1298 2951.500 690.500 L 2951.500 83 1517.250 83 L 83 83 83 690.500 M 165.667 165.666 C 165.300 166.033, 165 402.508, 165 691.167 L 165 1216.001 1516.750 1215.750 L 2868.500 1215.500 2868.500 690.500 L 2868.500 165.500 1517.417 165.250 C 774.321 165.112, 166.034 165.299, 165.667 165.666 M 1431.522 319.250 C 1430.932 321.820, 1410 440.712, 1410 441.490 C 1410 441.771, 1449.825 442, 1498.500 442 C 1547.175 442, 1587 441.789, 1587 441.532 C 1587 440.830, 1607.953 321.857, 1608.535 319.250 L 1609.038 317 1520.538 317 L 1432.038 317 1431.522 319.250 M 2117.515 319.250 C 2116.877 321.999, 2096 440.499, 2096 441.376 C 2096 441.719, 2135.825 442, 2184.500 442 C 2233.175 442, 2273 441.736, 2273 441.414 C 2273 440.474, 2294.060 321.730, 2294.666 319.250 L 2295.217 317 2206.627 317 L 2118.038 317 2117.515 319.250 M 556 486.034 C 476.905 492.188, 408.094 523.811, 360.592 575.839 C 317.778 622.731, 290.882 688.596, 285.953 758.622 C 282.024 814.430, 298.053 862.594, 332 896.984 C 369.855 935.333, 429.203 955.982, 501.605 955.997 C 581.076 956.012, 651.904 932.363, 704 888.416 C 738.204 859.563, 765.159 820.473, 781.862 775.500 C 796.976 734.808, 804.293 687.435, 801.094 651 C 797.104 605.569, 782.346 572.134, 753.601 543.404 C 722.812 512.631, 680.284 493.971, 626 487.415 C 610.804 485.579, 571.743 484.809, 556 486.034 M 1079 486.032 C 1012.491 492.373, 955.757 515.494, 906.500 556.333 C 896.944 564.257, 877.770 584.053, 869.047 595.002 C 828.852 645.455, 806.868 707.812, 806.644 772 C 806.545 800.243, 810.195 821.192, 819.100 843.500 C 843.367 904.288, 900.650 943.186, 981.141 953.536 C 998.385 955.754, 1032.159 956.497, 1051.500 955.085 C 1133.489 949.099, 1200.297 922.785, 1245.858 878.532 C 1259.782 865.008, 1267.838 855.461, 1277.381 841.179 C 1283.621 831.839, 1295 811.435, 1295 809.585 C 1295 809.263, 1257.013 809, 1210.585 809 L 1126.170 809 1122.674 813.763 C 1108.384 833.229, 1084.524 845.836, 1058.638 847.597 C 1023.315 849.999, 993.164 831.133, 983.372 800.500 C 980.549 791.671, 979.223 776.377, 980.437 766.661 L 981.144 761 1149.603 761 C 1283.453 761, 1318.160 760.743, 1318.534 759.750 C 1318.794 759.063, 1319.906 752.200, 1321.006 744.500 C 1332.384 664.865, 1317.788 600.429, 1277.645 553.071 C 1247.999 518.096, 1200.194 494.462, 1145 487.493 C 1130.036 485.604, 1092.265 484.768, 1079 486.032 M 1798 486.026 C 1740.934 490.922, 1694.902 505.321, 1658 529.820 C 1643.070 539.731, 1623.123 559.313, 1614.123 572.892 C 1591.734 606.672, 1582.575 652.023, 1591.683 684 C 1598.775 708.900, 1617.128 729.077, 1645.725 743.416 C 1669.087 755.129, 1690.119 761.345, 1745.627 772.941 C 1781.296 780.393, 1797.655 784.805, 1808.559 789.915 C 1818.964 794.791, 1823.569 798.261, 1827.178 803.946 C 1830.679 809.461, 1831.006 817.763, 1828.060 826.327 C 1820.867 847.233, 1800.649 858.214, 1769 858.406 C 1754.651 858.493, 1748.447 857.446, 1739.147 853.367 C 1721.888 845.797, 1713.372 832.182, 1714.151 813.404 L 1714.500 805 1630.122 805 L 1545.745 805 1546.307 824.750 C 1547.027 850.014, 1549.938 863.263, 1558.338 879.500 C 1579.662 920.718, 1625.335 945.167, 1696.970 953.709 C 1715.275 955.891, 1771.685 956.163, 1791.500 954.164 C 1832.779 950, 1868.166 941.994, 1897.810 930.110 C 1906.607 926.584, 1926.146 916.534, 1934.064 911.463 C 1977.486 883.653, 2003.533 844.603, 2010.593 796.731 C 2012.687 782.533, 2012.061 763.959, 2009.111 752.725 C 2006.771 743.815, 2000.698 731.207, 1995.117 723.672 C 1985.751 711.027, 1969.204 698.094, 1950.270 688.619 C 1925.108 676.027, 1900.883 668.757, 1831.605 653.008 C 1785.743 642.582, 1766.824 634.087, 1762.884 622.149 C 1760.265 614.212, 1764.399 602.574, 1772.485 595.120 C 1780.715 587.534, 1792.159 583.703, 1810.500 582.396 C 1833.545 580.753, 1851.267 588.510, 1858.461 603.391 C 1860.746 608.117, 1863.373 620.221, 1862.763 623.211 C 1862.550 624.253, 1877.869 624.549, 1942.618 624.756 L 2022.736 625.012 2023.357 621.256 C 2025.058 610.966, 2022.939 588.047, 2018.997 574.090 C 2005.114 524.937, 1957.833 495.991, 1877.500 487.466 C 1860.467 485.659, 1812.424 484.788, 1798 486.026 M 2490 485.624 C 2446.492 488.219, 2403.794 498.605, 2370 514.812 C 2309.602 543.778, 2274.583 595.789, 2274.599 656.500 C 2274.603 668.539, 2275.032 673.219, 2276.773 680.209 C 2281.872 700.677, 2292.691 716.886, 2309.945 729.910 C 2334.774 748.651, 2362.618 758.571, 2429.500 772.503 C 2471.401 781.231, 2484.931 784.965, 2497.500 791.270 C 2505.768 795.418, 2509.869 798.734, 2513.178 803.946 C 2519.878 814.500, 2514.521 833.524, 2501.764 844.484 C 2495.998 849.437, 2485.190 854.437, 2475.500 856.633 C 2465.531 858.893, 2444.070 859.151, 2436 857.107 C 2411.707 850.957, 2399.225 835.739, 2400.151 813.404 L 2400.500 805 2316.250 805 L 2232 805 2232.006 820.250 C 2232.009 828.638, 2232.657 839.777, 2233.445 845.004 C 2243.258 910.099, 2300.263 947.891, 2399.500 955.092 C 2429.044 957.236, 2478.078 955.127, 2508 950.425 C 2561.998 941.940, 2610.116 922.406, 2640.373 896.686 C 2671.209 870.474, 2689.324 838.867, 2695.987 799.651 C 2705.667 742.678, 2679.948 704.285, 2615.500 679.500 C 2596.833 672.321, 2578.630 667.127, 2545.500 659.526 C 2534.500 657.002, 2519.468 653.546, 2512.095 651.846 C 2493 647.443, 2473.754 641.456, 2465.553 637.368 C 2457.319 633.263, 2450.499 627.041, 2448.890 622.167 C 2446.397 614.613, 2450.291 602.849, 2457.669 595.644 C 2466.540 586.984, 2480.897 582.713, 2501.500 582.607 C 2519.787 582.513, 2529.286 585.531, 2537.795 594.141 C 2544.203 600.624, 2547.251 607.621, 2547.800 617.111 L 2548.257 625 2628.498 625 L 2708.738 625 2709.358 621.250 C 2710.386 615.034, 2710.045 603.117, 2708.523 592 C 2703.243 553.434, 2684.202 527.631, 2647.361 509.122 C 2625.628 498.203, 2599.111 491.354, 2563.500 487.463 C 2550.021 485.990, 2503.418 484.824, 2490 485.624 M 1400 498.469 C 1400 498.998, 1374.335 644.619, 1362.014 714 C 1357.569 739.025, 1351.943 770.750, 1349.510 784.500 C 1342.592 823.597, 1322 941.822, 1322 942.442 C 1322 942.749, 1361.740 943, 1410.312 943 L 1498.624 943 1503.822 913.250 C 1506.680 896.887, 1513.974 855.600, 1520.029 821.500 C 1530.407 763.053, 1545.525 677.044, 1562.564 579.500 C 1573.709 515.697, 1575.996 502.733, 1576.543 500.250 L 1577.038 498 1488.519 498 C 1439.834 498, 1400 498.211, 1400 498.469 M 2084.081 509.750 C 2082.158 520.357, 2064.242 621.903, 2057.044 663 C 2055.454 672.075, 2051.666 693.450, 2048.626 710.500 C 2037.354 773.716, 2024.994 844.009, 2010.453 927.601 C 2009.104 935.357, 2008 941.994, 2008 942.351 C 2008 942.708, 2047.614 943, 2096.031 943 C 2165.549 943, 2184.158 942.737, 2184.515 941.750 C 2184.764 941.063, 2188.594 920.025, 2193.028 895 C 2206.258 820.324, 2230.512 682.610, 2236.001 651 C 2245.856 594.242, 2261.995 502.480, 2262.514 500.250 L 2263.038 498 2174.625 498 L 2086.212 498 2084.081 509.750 M 1082.500 593.638 C 1038.863 598.276, 1010.068 621.741, 999.470 661.300 C 998.114 666.360, 997.004 670.615, 997.003 670.756 C 997.001 670.897, 1033.112 670.897, 1077.250 670.756 L 1157.500 670.500 1157.441 657.500 C 1157.389 646.098, 1157.060 643.599, 1154.762 637.165 C 1147.269 616.192, 1129.918 600.278, 1109 595.197 C 1103.779 593.928, 1088.321 593.019, 1082.500 593.638 M 555.925 604.915 C 511.553 611.158, 479.352 653.142, 468.080 719.449 C 459.839 767.924, 465.187 803.149, 483.590 821.609 C 494.688 832.740, 509.099 837.674, 527.500 836.643 C 540.315 835.925, 547.238 834.098, 558.979 828.337 C 567.072 824.366, 569.858 822.285, 578.047 814.093 C 587.939 804.198, 594.202 795.553, 600.232 783.468 C 613.980 755.918, 624.011 712.783, 623.994 681.289 C 623.980 654.655, 617.344 633.213, 604.922 619.656 C 598.980 613.172, 592.460 608.988, 584.310 606.432 C 578.542 604.622, 563.657 603.827, 555.925 604.915" stroke="none" fill="#000000" fill-rule="evenodd"/>
</svg>
